X: 37229
T: Siud Mar Chaidh An Càl A Dholaidh
R: strathspey
M: 4/4
K: Aminor
|:a/|e>A A2 e>d B<d|A>A A>B G>A B<d|e>A A2 e>d B<d|G<B g>B A2 A>:|
|:B/|G>B g>a g<e g2|G>B d>e d<B d2|e>d d>e d<B g2|a>e g>B A2 A>:|

